X: 39364
T: Tammienorrie, The
R: reel
M: 4/4
K: Dmajor
D3E|:F2dF GBAF|EccA GECE|F2dF GBAF|
EA,A,B, CDEG|FddF GBAF|EccA GECE|
D2B,C DCDE|1 FAGED4:|2 FAGED2ag||
|:f2de fgaf|edcB A2F2|GB (3BBB GBdf|
edcBA2ag|f2de fgaf|edcB cAFA|
GBdf edcB|1 Addc deag:|2 Addc dBAG||

